source/img/sprite/vk.svg

<svg width="30" height="30" viewBox="0 0 30 30" fill="none" xmlns="http://www.w3.org/2000/svg">
<path d="M0.5 0.5H29.5V29.5H0.5V0.5Z" stroke="#2D383F" stroke-opacity="0.3"/>
<path d="M22.8574 19.0274C22.8144 18.9564 22.5484 18.3866 21.2683 17.2153C19.9282 15.9888 20.1082 16.188 21.7223 14.0673C22.7054 12.7757 23.0984 11.987 22.9754 11.6498C22.8584 11.3284 22.1353 11.4132 22.1353 11.4132L19.7312 11.427C19.7312 11.427 19.5531 11.4033 19.4201 11.4812C19.2911 11.5581 19.2081 11.7356 19.2081 11.7356C19.2081 11.7356 18.8271 12.7353 18.3191 13.5852C17.248 15.3785 16.8189 15.4732 16.6439 15.3618C16.2369 15.1025 16.3389 14.3187 16.3389 13.7626C16.3389 12.0245 16.6059 11.2998 15.8179 11.1125C15.5559 11.0504 15.3638 11.009 14.6948 11.0021C13.8367 10.9932 13.1097 11.005 12.6986 11.2032C12.4246 11.3353 12.2136 11.6301 12.3426 11.6468C12.5016 11.6676 12.8617 11.7425 13.0527 11.9988C13.2997 12.3291 13.2907 13.0725 13.2907 13.0725C13.2907 13.0725 13.4327 15.1183 12.9597 15.3726C12.6346 15.5471 12.1896 15.1912 11.2345 13.5635C10.7455 12.7304 10.3755 11.8085 10.3755 11.8085C10.3755 11.8085 10.3045 11.637 10.1775 11.5453C10.0234 11.4339 9.80743 11.3984 9.80743 11.3984L7.52126 11.4122C7.52126 11.4122 7.17824 11.4221 7.05223 11.569C6.94022 11.7001 7.04323 11.9702 7.04323 11.9702C7.04323 11.9702 8.83336 16.0983 10.8595 18.1795C12.7186 20.0873 14.8288 19.9621 14.8288 19.9621H15.7849C15.7849 19.9621 16.0739 19.9305 16.2209 19.7738C16.3569 19.6298 16.3519 19.3597 16.3519 19.3597C16.3519 19.3597 16.3329 18.0948 16.929 17.9084C17.516 17.725 18.2701 19.131 19.0691 19.6722C19.6732 20.0814 20.1322 19.9917 20.1322 19.9917L22.2693 19.9621C22.2693 19.9621 23.3874 19.8941 22.8574 19.0274Z" fill="#2D383F"/>
</svg>

<svg viewBox="0 0 30 30" fill="none" xmlns="http://www.w3.org/2000/svg"><path d="M.5.5h29v29h-29v-29Z" stroke="#2D383F" stroke-opacity=".3"/><path d="M22.86 19.03c-.05-.07-.31-.64-1.6-1.81-1.33-1.23-1.15-1.03.46-3.15.99-1.3 1.38-2.08 1.26-2.42-.12-.32-.84-.24-.84-.24l-2.4.02s-.19-.03-.32.05-.21.26-.21.26-.38 1-.9 1.85c-1.06 1.79-1.5 1.88-1.67 1.77-.4-.26-.3-1.04-.3-1.6 0-1.74.27-2.46-.52-2.65-.26-.06-.46-.1-1.13-.1-.85-.02-1.58 0-2 .2-.27.13-.48.42-.35.44.16.02.52.1.71.35.25.33.24 1.07.24 1.07s.14 2.05-.33 2.3c-.33.18-.77-.18-1.73-1.8-.48-.84-.85-1.76-.85-1.76s-.08-.17-.2-.26a.92.92 0 0 0-.37-.15l-2.29.01s-.34.01-.47.16c-.11.13 0 .4 0 .4s1.78 4.13 3.81 6.21c1.86 1.9 3.97 1.78 3.97 1.78h.95s.3-.03.44-.19c.14-.14.13-.41.13-.41s-.02-1.27.58-1.45c.59-.18 1.34 1.22 2.14 1.76.6.41 1.06.32 1.06.32l2.14-.03s1.12-.07.59-.93Z" fill="#2D383F"/></svg>
